flaticon/medical/braces-2.svg

<svg xmlns="http://www.w3.org/2000/svg" width="32" height="32" viewBox="0 0 24 24">
    <path d="M 23.613281 8.976562 L 23.554688 8.769531 C 23.550781 8.757812 23.546875 8.742188 23.542969 8.730469 C 23.457031 8.421875 23.359375 8.121094 23.25 7.824219 C 23.246094 7.820312 23.246094 7.8125 23.242188 7.808594 C 23.136719 7.527344 23.019531 7.25 22.894531 6.980469 C 22.878906 6.945312 22.867188 6.910156 22.847656 6.875 C 22.726562 6.621094 22.59375 6.367188 22.457031 6.121094 C 22.425781 6.070312 22.394531 6.015625 22.367188 5.964844 C 22.222656 5.722656 22.074219 5.480469 21.914062 5.25 C 21.894531 5.21875 21.871094 5.191406 21.851562 5.160156 C 21.691406 4.929688 21.527344 4.707031 21.351562 4.492188 C 21.335938 4.472656 21.320312 4.453125 21.304688 4.429688 C 21.113281 4.199219 20.914062 3.976562 20.710938 3.757812 C 20.691406 3.738281 20.671875 3.71875 20.652344 3.699219 C 18.90625 1.878906 16.59375 0.609375 14.003906 0.171875 C 13.988281 0.167969 13.976562 0.164062 13.964844 0.164062 C 13.664062 0.113281 13.363281 0.078125 13.058594 0.0507812 C 13.007812 0.046875 12.960938 0.0429688 12.914062 0.0390625 C 12.609375 0.015625 12.308594 0 12 0 C 11.691406 0 11.390625 0.015625 11.089844 0.0390625 C 11.039062 0.0429688 10.992188 0.0429688 10.941406 0.0507812 C 10.636719 0.0742188 10.335938 0.113281 10.039062 0.164062 C 10.023438 0.164062 10.011719 0.167969 9.996094 0.171875 C 7.40625 0.609375 5.09375 1.878906 3.347656 3.699219 C 3.328125 3.71875 3.308594 3.738281 3.289062 3.757812 C 3.085938 3.976562 2.886719 4.199219 2.695312 4.429688 C 2.679688 4.449219 2.664062 4.472656 2.648438 4.492188 C 2.472656 4.707031 2.308594 4.929688 2.148438 5.160156 C 2.128906 5.191406 2.105469 5.21875 2.085938 5.25 C 1.925781 5.480469 1.777344 5.71875 1.636719 5.964844 C 1.605469 6.015625 1.574219 6.066406 1.542969 6.121094 C 1.40625 6.367188 1.273438 6.617188 1.152344 6.875 C 1.136719 6.910156 1.121094 6.945312 1.105469 6.980469 C 0.980469 7.253906 0.863281 7.527344 0.757812 7.808594 C 0.753906 7.8125 0.753906 7.820312 0.75 7.824219 C 0.640625 8.121094 0.542969 8.421875 0.457031 8.730469 C 0.453125 8.742188 0.449219 8.757812 0.445312 8.769531 L 0.386719 8.976562 C 0.136719 9.941406 0 10.957031 0 12 C 0 18.617188 5.382812 24 12 24 C 18.617188 24 24 18.617188 24 12 C 24 10.957031 23.863281 9.941406 23.613281 8.976562 Z M 21.199219 15.507812 C 21.226562 16.433594 19.902344 16.601562 18.164062 16.722656 L 17.847656 16.746094 C 16.933594 16.8125 16.445312 16.824219 15.535156 16.742188 C 15.328125 16.722656 15.109375 16.707031 14.894531 16.691406 C 13.335938 16.585938 12.394531 16.453125 12.402344 15.496094 C 12.40625 14.851562 12.425781 13.488281 12.5 12 L 14 12 L 14 13.601562 L 16.398438 13.601562 L 16.398438 12 L 17.199219 12 L 17.199219 13.601562 L 19.601562 13.601562 L 19.601562 12 L 20.9375 12 C 21.074219 13.324219 21.171875 14.589844 21.199219 15.507812 Z M 11.601562 15.496094 C 11.605469 16.453125 10.664062 16.585938 9.105469 16.691406 C 8.890625 16.707031 8.671875 16.722656 8.464844 16.742188 C 7.554688 16.824219 7.066406 16.8125 6.152344 16.746094 L 5.835938 16.722656 C 4.097656 16.597656 2.773438 16.429688 2.800781 15.503906 C 2.828125 14.589844 2.925781 13.324219 3.0625 12 L 4.398438 12 L 4.398438 13.601562 L 6.800781 13.601562 L 6.800781 12 L 7.601562 12 L 7.601562 13.601562 L 10 13.601562 L 10 12 L 11.5 12 C 11.574219 13.488281 11.59375 14.851562 11.601562 15.496094 Z M 1.0625 9.59375 C 1.390625 9.789062 1.765625 9.894531 2.152344 9.894531 L 2.503906 9.894531 C 2.449219 10.324219 2.394531 10.761719 2.34375 11.199219 L 0.832031 11.199219 C 0.871094 10.652344 0.949219 10.113281 1.0625 9.59375 Z M 1.28125 8.757812 C 1.363281 8.488281 1.457031 8.222656 1.558594 7.960938 C 1.574219 7.917969 1.589844 7.878906 1.605469 7.839844 C 1.707031 7.585938 1.8125 7.339844 1.929688 7.101562 C 1.945312 7.066406 1.964844 7.039062 1.980469 7.003906 C 2.089844 6.789062 2.203125 6.574219 2.328125 6.363281 C 2.347656 6.324219 2.371094 6.285156 2.394531 6.246094 C 2.527344 6.027344 2.667969 5.8125 2.8125 5.605469 C 2.84375 5.558594 2.878906 5.511719 2.910156 5.46875 C 3.0625 5.253906 3.222656 5.042969 3.390625 4.84375 C 3.402344 4.832031 3.410156 4.824219 3.417969 4.8125 C 3.597656 4.601562 3.78125 4.394531 3.976562 4.199219 C 3.984375 4.1875 3.992188 4.179688 4 4.167969 C 4.203125 3.964844 4.414062 3.765625 4.632812 3.574219 C 4.632812 3.574219 4.636719 3.570312 4.636719 3.570312 C 6.183594 2.222656 8.09375 1.296875 10.167969 0.953125 C 10.175781 0.953125 10.179688 0.949219 10.1875 0.949219 C 10.464844 0.902344 10.742188 0.871094 11.023438 0.84375 C 11.070312 0.839844 11.117188 0.839844 11.164062 0.835938 C 11.441406 0.8125 11.71875 0.800781 12 0.800781 C 12.28125 0.800781 12.558594 0.8125 12.835938 0.835938 C 12.882812 0.839844 12.929688 0.839844 12.976562 0.84375 C 13.257812 0.871094 13.535156 0.902344 13.808594 0.949219 C 13.816406 0.949219 13.824219 0.953125 13.832031 0.953125 C 15.90625 1.296875 17.816406 2.222656 19.363281 3.570312 C 19.363281 3.570312 19.363281 3.574219 19.367188 3.574219 C 19.585938 3.765625 19.792969 3.964844 19.996094 4.167969 C 20.007812 4.179688 20.015625 4.1875 20.023438 4.199219 C 20.21875 4.394531 20.402344 4.601562 20.582031 4.8125 C 20.589844 4.824219 20.597656 4.832031 20.605469 4.84375 C 20.777344 5.042969 20.933594 5.253906 21.089844 5.46875 C 21.121094 5.511719 21.15625 5.558594 21.1875 5.605469 C 21.332031 5.8125 21.472656 6.027344 21.605469 6.246094 C 21.628906 6.285156 21.648438 6.324219 21.671875 6.363281 C 21.792969 6.574219 21.910156 6.789062 22.019531 7.003906 C 22.035156 7.035156 22.054688 7.066406 22.070312 7.101562 C 22.1875 7.339844 22.292969 7.585938 22.394531 7.839844 C 22.410156 7.878906 22.425781 7.917969 22.441406 7.960938 C 22.542969 8.222656 22.636719 8.488281 22.71875 8.757812 C 22.71875 8.761719 22.71875 8.761719 22.722656 8.765625 C 22.476562 8.976562 22.167969 9.09375 21.847656 9.09375 L 21.453125 9.09375 C 21.296875 8.242188 21.121094 7.386719 20.929688 6.59375 C 20.355469 4.171875 18.296875 3.894531 16.796875 3.894531 C 13.988281 3.894531 13.0625 4.039062 12.269531 7.070312 C 12.167969 7.457031 12.078125 7.875 12 8.328125 C 11.921875 7.875 11.832031 7.457031 11.730469 7.070312 C 10.9375 4.039062 10.011719 3.894531 7.199219 3.894531 C 5.703125 3.894531 3.644531 4.171875 3.066406 6.59375 C 2.878906 7.386719 2.699219 8.242188 2.546875 9.09375 L 2.152344 9.09375 C 1.832031 9.09375 1.523438 8.976562 1.277344 8.765625 C 1.277344 8.761719 1.28125 8.761719 1.28125 8.757812 Z M 3.84375 6.777344 C 4.28125 4.945312 5.714844 4.695312 7.199219 4.695312 C 9.84375 4.695312 10.300781 4.765625 10.957031 7.269531 C 11.210938 8.234375 11.363281 9.726562 11.457031 11.199219 L 10 11.199219 L 10 9.597656 L 7.601562 9.597656 L 7.601562 11.199219 L 6.800781 11.199219 L 6.800781 9.597656 L 4.398438 9.597656 L 4.398438 11.199219 L 3.148438 11.199219 C 3.34375 9.519531 3.59375 7.84375 3.84375 6.777344 Z M 9.199219 10.398438 L 9.199219 12.800781 L 8.398438 12.800781 L 8.398438 10.398438 Z M 6 10.398438 L 6 12.800781 L 5.199219 12.800781 L 5.199219 10.398438 Z M 14.800781 12.800781 L 14.800781 10.398438 L 15.601562 10.398438 L 15.601562 12.800781 Z M 18 12.800781 L 18 10.398438 L 18.800781 10.398438 L 18.800781 12.800781 Z M 19.601562 11.199219 L 19.601562 9.601562 L 17.199219 9.601562 L 17.199219 11.199219 L 16.398438 11.199219 L 16.398438 9.601562 L 14 9.601562 L 14 11.199219 L 12.542969 11.199219 C 12.636719 9.726562 12.789062 8.234375 13.042969 7.273438 C 13.699219 4.765625 14.15625 4.695312 16.800781 4.695312 C 18.285156 4.695312 19.71875 4.945312 20.15625 6.777344 C 20.40625 7.84375 20.65625 9.519531 20.851562 11.199219 Z M 21.496094 9.894531 L 21.847656 9.894531 C 22.234375 9.894531 22.609375 9.789062 22.9375 9.59375 C 23.050781 10.113281 23.128906 10.652344 23.167969 11.199219 L 21.65625 11.199219 C 21.605469 10.761719 21.550781 10.324219 21.496094 9.894531 Z M 12 23.199219 C 5.824219 23.199219 0.800781 18.175781 0.800781 12 L 2.257812 12 C 2.125 13.316406 2.027344 14.570312 2 15.480469 C 1.945312 17.25 4.160156 17.40625 5.777344 17.519531 L 6.089844 17.542969 C 6.578125 17.578125 6.953125 17.601562 7.328125 17.601562 C 7.691406 17.601562 8.058594 17.582031 8.535156 17.539062 C 8.738281 17.519531 8.949219 17.503906 9.160156 17.492188 C 10.1875 17.421875 11.390625 17.335938 12 16.660156 C 12.609375 17.335938 13.8125 17.421875 14.839844 17.492188 C 15.050781 17.503906 15.261719 17.519531 15.464844 17.539062 C 15.941406 17.582031 16.308594 17.601562 16.671875 17.601562 C 17.046875 17.601562 17.421875 17.578125 17.910156 17.542969 L 18.222656 17.519531 C 19.839844 17.40625 22.054688 17.25 22 15.480469 C 21.972656 14.570312 21.875 13.316406 21.742188 12 L 23.199219 12 C 23.199219 18.175781 18.175781 23.199219 12 23.199219 Z M 12 23.199219"/>
</svg>

<svg xmlns="http://www.w3.org/2000/svg" width="32" height="32" viewBox="0 0 24 24">
    <path d="M23.613 8.977l-.058-.207-.012-.04c-.086-.308-.184-.609-.293-.906-.004-.004-.004-.011-.008-.015a11.93 11.93 0 0 0-.347-.829c-.016-.035-.028-.07-.047-.105a13.762 13.762 0 0 0-.48-.91 12.267 12.267 0 0 0-.454-.715c-.02-.031-.043-.059-.062-.09-.16-.23-.325-.453-.5-.668-.016-.02-.032-.039-.047-.062-.192-.23-.39-.453-.594-.672l-.059-.059A11.979 11.979 0 0 0 14.004.172c-.016-.004-.027-.008-.04-.008-.3-.05-.6-.086-.905-.113l-.145-.012C12.61.016 12.31 0 12 0c-.309 0-.61.016-.91.04-.05.003-.098.003-.149.01a9.815 9.815 0 0 0-.902.114c-.016 0-.027.004-.043.008a11.979 11.979 0 0 0-6.648 3.527l-.059.059c-.203.219-.402.441-.594.672-.015.02-.03.043-.047.062-.175.215-.34.438-.5.668-.02.031-.043.059-.062.09-.16.23-.309.469-.45.715-.03.05-.062.101-.093.156a12.479 12.479 0 0 0-.438.86c-.125.273-.242.546-.347.828-.004.003-.004.011-.008.015-.11.297-.207.598-.293.906l-.012.04-.058.207C.137 9.94 0 10.957 0 12c0 6.617 5.383 12 12 12s12-5.383 12-12c0-1.043-.137-2.059-.387-3.023zm-2.414 6.53c.028.927-1.297 1.095-3.035 1.216l-.316.023c-.914.067-1.403.078-2.313-.004-.207-.02-.426-.035-.64-.05-1.56-.106-2.5-.239-2.493-1.196.004-.644.024-2.008.098-3.496H14v1.602h2.398V12h.801v1.602h2.403V12h1.335c.137 1.324.235 2.59.262 3.508zm-9.597-.01c.003.956-.938 1.089-2.497 1.194-.214.016-.433.032-.64.051-.91.082-1.399.07-2.313.004l-.316-.023c-1.738-.125-3.063-.293-3.035-1.22.027-.913.125-2.179.261-3.503h1.336v1.602h2.403V12h.8v1.602H10V12h1.5c.074 1.488.094 2.852.102 3.496zM1.062 9.593c.329.195.704.3 1.09.3h.352c-.055.43-.11.868-.16 1.305H.832c.04-.547.117-1.086.23-1.605zm.22-.836a11.296 11.296 0 0 1 .323-.918c.102-.254.208-.5.325-.738.015-.036.035-.063.05-.098.11-.215.223-.43.348-.64.02-.04.043-.079.067-.118.132-.219.273-.434.417-.64.032-.047.067-.094.098-.137.152-.215.313-.426.48-.625.012-.012.02-.02.028-.032.18-.21.363-.417.559-.613L4 4.168c.203-.203.414-.402.633-.594l.004-.004A11.228 11.228 0 0 1 10.168.953c.008 0 .012-.004.02-.004.277-.047.554-.078.835-.105.047-.004.094-.004.141-.008a9.9 9.9 0 0 1 1.672 0c.047.004.094.004.14.008.282.027.56.058.833.105.007 0 .015.004.023.004a11.228 11.228 0 0 1 6.164 3.215c.012.012.02.02.027.031.196.196.38.403.559.614.008.011.016.019.023.03.172.2.329.41.485.626l.098.136c.144.207.285.422.417.641.024.04.043.078.067.117.121.211.238.426.348.64.015.032.035.063.05.099a10.53 10.53 0 0 1 .371.859 11.296 11.296 0 0 1 .282.805c-.246.21-.555.328-.875.328h-.395a46.849 46.849 0 0 0-.523-2.5c-.575-2.422-2.633-2.7-4.133-2.7-2.809 0-3.735.145-4.527 3.176-.102.387-.192.805-.27 1.258a14.965 14.965 0 0 0-.27-1.258c-.793-3.03-1.718-3.175-4.53-3.175-1.497 0-3.555.277-4.134 2.699a46.895 46.895 0 0 0-.52 2.5h-.394c-.32 0-.629-.117-.875-.328 0-.004.004-.004.004-.008zm2.562-1.98c.437-1.833 1.87-2.083 3.355-2.083 2.645 0 3.102.07 3.758 2.575.254.964.406 2.457.5 3.93H10V9.597H7.602v1.601H6.8V9.598H4.398v1.601h-1.25c.196-1.68.446-3.355.696-4.422zm5.355 3.62v2.403h-.8v-2.403zm-3.199 0v2.403h-.8v-2.403zm8.8 2.403v-2.403h.802v2.403zm3.2 0v-2.403h.8v2.403zm1.602-1.602V9.602h-2.403v1.597h-.8V9.602H14v1.597h-1.457c.094-1.472.246-2.965.5-3.926.656-2.507 1.113-2.578 3.758-2.578 1.484 0 2.918.25 3.355 2.082.25 1.067.5 2.743.696 4.422zm1.894-1.304h.352c.386 0 .761-.106 1.09-.301.113.52.19 1.058.23 1.605h-1.512c-.05-.437-.105-.875-.16-1.304zM12 23.199C5.824 23.2.8 18.176.8 12h1.458c-.133 1.316-.23 2.57-.258 3.48-.055 1.77 2.16 1.926 3.777 2.04l.313.023c.488.035.863.059 1.238.059.363 0 .73-.02 1.207-.063.203-.02.414-.035.625-.047 1.027-.07 2.23-.156 2.84-.832.61.676 1.813.762 2.84.832.21.012.422.028.625.047.476.043.844.063 1.207.063.375 0 .75-.024 1.238-.059l.313-.023c1.617-.114 3.832-.27 3.777-2.04-.027-.91-.125-2.164-.258-3.48H23.2c0 6.176-5.023 11.2-11.199 11.2zm0 0"/>
</svg>
